X: 14075
T: PRIORITY MAIL
C: Bob McQuillen Apr'09
B: Bob's Note Book 14 #75
%R: reel
%D:2009
Z: 2020 John Chambers <jc:trillian.mit.edu>
M: C
L: 1/8
K: Bm
FA \
| B2Bd BAde | fded BAFA | B2Bd ABde | fafd edBA |
| B2Bd ABdf | edef dBde | f2af efeB | cBAc B2 :|
|: de \
| f2af edBA | FEFA B2de | f2af edBd | efdB A2FA |
| BdBA FDFA | Bdfd efde | f2af edBA | FEFA B2 :|
%%begintext align
%% Lloyd Carr, good
%% friend and great piano player from Candia, wanted a
%% certain tune which I said I'd send him. After mailing
%% it by Priority Mail, I discovered the tune still sitting
%% on my desk! I'd forgotten to put it in the envelope!! So,
%% Priority Mail #2. $9.90!!
%%endtext

%%sep 1 1 500

%%sep 1 1 500

